!!!SOCIAL_FUNCTION:	songs used in the treatment of the sick
!!!PDT:	1929
!!!OTL: No_86_The_Waters_of_the_Spirits.krn
!!!REG: Southwest
!!!LANG: Non-Tone
!!!LING_GROUP: Uto-Aztecan
**kern
*staff1
=1-
*clefF4
*k[b-e-a-d-]
*M5/8
8F\L
8F\
8F\
8d-\
8d-\J
=2||
*M2/4
4d-\
16B-\
16r
8c\
=3||
*M5/8
8c\L
8B-\
8B-\
8B-\
8B-\J
=4||
*M2/4
4F\
4D-\
=5||
*M5/8
4F\
8G\L
8F\
8G\J
=6||
*M2/4
4F\
16D-\
16r
8F\
=7
4F\
16D-\
16r
8F\
=8
8F\L
8F\J
8F\L
8F\J
=9||
*M3/4
4F\
4r
8B-\L
8B-\J
=10||
*M3/8
8.c\L
16B-\K
8c\J
=11
8c\L
8B-\
8B-\J
=12||
*M3/4
2B-\
12B-\L
24G\Jk
24r
12B-\
=13||
*M2/4
8B-\L
8B-\J
8B-\L
8B-\J
=14
8F\L
8F\J
4D-\
=15||
*M5/8
4F\
8G\L
8F\
8G\J
=16||
*M2/4
8F\L
8F\J
16D-\
16r
8F\
=17
8F\L
8F\J
16D-\
16r
8F\
=18
8F\L
8F\J
8F\L
8F\J
=19||
2F\
==:|!
*-
